X:4
T:Mazurka Waltz
Z:Dave Holland <dave@biff.org.uk>
S:St Chartier festival 2002
R:Mazurka
M:3/4
L:1/8
Q:1/4=150
K:C
g3f eg|c'3g ag|fe fa gf|eg dg ce|
g3f eg|c'3g ag|1 fe fa gb|c'4 ce:|2 a3f ed|c4 Gc||
e2 eg fe|d2 df ed|cB ce dc|Bd Ad Gc|
e2 eg fe|d2 df ed|cB ce dB|1 c2 Gc:|2 c6|]
